svgs/solid/note-medical.svg

<svg xmlns="http://www.w3.org/2000/svg" viewBox="0 0 448 512"><!--! Font Awesome Pro 6.6.0 by @fontawesome - https://fontawesome.com License - https://fontawesome.com/license (Commercial License) Copyright 2024 Fonticons, Inc. --><path d="M0 96C0 60.7 28.7 32 64 32l320 0c35.3 0 64 28.7 64 64l0 224-112 0c-26.5 0-48 21.5-48 48l0 112L64 480c-35.3 0-64-28.7-64-64L0 96zM402.7 352l45.3 0-32 32-64 64-32 32 0-45.3 0-66.7c0-8.8 7.2-16 16-16l66.7 0zM192 144l0 48-48 0c-8.8 0-16 7.2-16 16l0 32c0 8.8 7.2 16 16 16l48 0 0 48c0 8.8 7.2 16 16 16l32 0c8.8 0 16-7.2 16-16l0-48 48 0c8.8 0 16-7.2 16-16l0-32c0-8.8-7.2-16-16-16l-48 0 0-48c0-8.8-7.2-16-16-16l-32 0c-8.8 0-16 7.2-16 16z"/></svg>

<svg xmlns="http://www.w3.org/2000/svg" viewBox="0 0 448 512"><!--! Font Awesome Pro 6.4.0 by @fontawesome - https://fontawesome.com License - https://fontawesome.com/license (Commercial License) Copyright 2023 Fonticons, Inc. --><path d="M0 96C0 60.7 28.7 32 64 32H384c35.3 0 64 28.7 64 64V320H336c-26.5 0-48 21.5-48 48V480H64c-35.3 0-64-28.7-64-64V96zM402.7 352H448l-32 32-64 64-32 32V434.7 368c0-8.8 7.2-16 16-16h66.7zM192 144v48H144c-8.8 0-16 7.2-16 16v32c0 8.8 7.2 16 16 16h48v48c0 8.8 7.2 16 16 16h32c8.8 0 16-7.2 16-16V256h48c8.8 0 16-7.2 16-16V208c0-8.8-7.2-16-16-16H256V144c0-8.8-7.2-16-16-16H208c-8.8 0-16 7.2-16 16z"/></svg>
